dist/img/check.svg

<svg viewBox="0 0 15 12" fill="none" xmlns="http://www.w3.org/2000/svg">
<path d="M5.62462 11.1859C5.48438 11.3269 5.29313 11.4056 5.09438 11.4056C4.89563 11.4056 4.70438 11.3269 4.56413 11.1859L0.329625 6.95063C-0.109875 6.51113 -0.109875 5.79863 0.329625 5.35988L0.859875 4.82963C1.29938 4.39013 2.01112 4.39013 2.45062 4.82963L5.09438 7.47338L12.2381 0.329625C12.6776 -0.109875 13.3901 -0.109875 13.8289 0.329625L14.3591 0.859875C14.7986 1.29938 14.7986 2.01188 14.3591 2.45063L5.62462 11.1859Z" fill="#DBBBA9"/>
</svg>

<svg viewBox="0 0 15 12" fill="none" xmlns="http://www.w3.org/2000/svg"><path d="M5.625 11.186a.748.748 0 01-1.06 0L.33 6.95a1.124 1.124 0 010-1.591l.53-.53c.44-.44 1.151-.44 1.59 0l2.644 2.643L12.238.33c.44-.44 1.152-.44 1.59 0l.531.53c.44.44.44 1.152 0 1.59l-8.734 8.736z" fill="#DBBBA9"/></svg>
